(Projekt solderstation_gehaeuse)
(Erstellt mit Estlcam Version 8 Build 8,109)
(Laufzeit ca. 00:17:29 Stunden)

(Benoetigte Werkzeuge:)
(Fraeser 2mm)

G90
M03 S24000
G00 Z5.0000


(Nr. 1: Tasche raeumen: Ausschnitt 4)
G00 X70.8000 Y80.5000 Z5.0000
G00 Z0.5000
G01 Z-3.0000 F200 S24000
G01 X21.2000 F400
G00 Z5.0000


(Nr. 2: Tasche Seitenwand: Ausschnitt 4)
G00 X21.0000 Y80.0000 Z5.0000
G00 Z0.5000
G01 Z-3.0000 F200
G01 Y81.0000 F400
G01 X71.0000
G01 Y80.0000
G01 X21.0000
G00 Z5.0000


(Nr. 3: Tasche Seitenwand: Ausschnitt 3)
G00 X30.0000 Y84.0000 Z5.0000
G00 Z0.5000
G01 Z-3.5000 F200
G01 Y86.0000 F400
G01 X51.0000
G01 Y84.0000
G01 X30.0000
G01 Z-4.0000 F200
G01 Y86.0000 F400
G01 X51.0000
G01 Y84.0000
G01 X30.0000
G00 Z5.0000


(Nr. 4: Tasche raeumen: Ausschnitt 1)
G00 X69.8000 Y83.6500 Z5.0000
G00 Z0.5000
G01 Z-3.5000 F200
G01 X62.2000 F400
G01 Y85.4500
G01 X69.8000
G01 Y87.2500
G01 X62.2000
G01 Y89.0500
G01 X69.8000
G01 Y90.8500
G01 X62.2000
G00 Z5.0000
G00 X69.8000 Y83.6500
G00 Z-3.0000
G01 Z-6.0000 F200
G01 X62.2000 F400
G01 Y85.4500
G01 X69.8000
G01 Y87.2500
G01 X62.2000
G01 Y89.0500
G01 X69.8000
G01 Y90.8500
G01 X62.2000
G00 Z5.0000


(Nr. 5: Tasche Seitenwand: Ausschnitt 1)
G00 X62.0000 Y82.5000 Z5.0000
G00 Z0.5000
G01 Z-3.5000 F200
G01 Y92.0000 F400
G01 X70.0000
G01 Y82.5000
G01 X62.0000
G01 Z-6.0000 F200
G01 Y92.0000 F400
G01 X70.0000
G01 Y82.5000
G01 X62.0000
G00 Z5.0000


(Nr. 6: Kreistasche 5)
G00 X53.0000 Y125.0000 Z5.0000
G00 Z0.5000
G01 Z-3.5000 F200
G00 Z0.5000
G00 Z-3.0000
G01 Z-6.0000
G00 Z5.0000


(Nr. 7: Kreistasche 1)
G00 X43.9000 Y125.0000 Z5.0000
G00 Z0.5000
G02 X42.5500 Y124.2206 Z0.3333 I-0.9000 J0.0000 F200
G02 Y125.7794 Z0.1667 I0.4500 J0.7794
G02 X43.9000 Y125.0000 Z0.0000 I0.4500 J-0.7794
G02 X42.5500 Y124.2206 I-0.9000 J0.0000
G02 Y125.7794 I0.4500 J0.7794
G02 X43.9000 Y125.0000 I0.4500 J-0.7794
G02 X42.5500 Y124.2206 Z-1.1667 I-0.9000 J0.0000
G02 Y125.7794 Z-2.3333 I0.4500 J0.7794
G02 X43.9000 Y125.0000 Z-3.5000 I0.4500 J-0.7794
G02 X42.5500 Y124.2206 I-0.9000 J0.0000
G02 Y125.7794 I0.4500 J0.7794
G02 X43.9000 Y125.0000 I0.4500 J-0.7794
G02 X43.9354 Y124.6125 I-0.8803 J-0.2758 F400
G02 X43.7955 Y124.2045 I-1.0296 J0.1251
G02 X43.4736 Y123.8567 I-0.9881 J0.5917
G02 X43.0000 Y123.6500 I-0.7326 J1.0326
G02 X42.4403 Y123.6488 I-0.2827 J1.3510
G02 X41.8863 Y123.8863 I0.2996 J1.4640
G02 X41.4410 Y124.3542 I0.9185 J1.3201
G02 X41.2000 Y125.0000 I1.4602 J0.9127
G02 X41.2331 Y125.7319 I1.8134 J0.2847
G02 X41.5681 Y126.4319 I1.8905 J-0.4746
G02 X42.1820 Y126.9748 I1.6461 J-1.2429
G02 X43.0000 Y127.2500 I1.0891 J-1.8838
G02 X43.9041 Y127.1827 I0.2854 J-2.2714
G02 X44.7501 Y126.7501 I-0.6492 J-2.3132
G02 X45.3905 Y125.9902 I-1.5655 J-1.9693
G02 X45.7000 Y125.0000 I-2.3051 J-1.2638
G02 X45.5984 Y123.9237 I-2.7270 J-0.2856
G02 X45.0683 Y122.9317 I-2.7337 J0.8232
G02 X44.1624 Y122.1937 I-2.2908 J1.8870
G02 X43.0000 Y121.8500 I-1.4377 J2.7248
G02 X41.7515 Y121.9858 I-0.2855 J3.1810
G02 X40.6135 Y122.6135 I0.9969 J3.1529
G02 X39.7780 Y123.6654 I2.2077 J2.6114
G02 X39.4000 Y125.0000 I3.1436 J1.6111
G02 X39.5701 Y126.4207 I3.6341 J0.2854
G02 X40.2953 Y127.7047 I3.5712 J-1.1703
G02 X41.4932 Y128.6378 I2.9315 J-2.5279
G02 X43.0000 Y129.0500 I1.7842 J-3.5618
G02 X44.5929 Y128.8456 I0.2853 J-4.0865
G02 X46.0229 Y128.0229 I-1.3435 J-3.9890
G02 X47.0535 Y126.6790 I-2.8477 J-3.2511
G02 X47.5000 Y125.0000 I-3.9795 J-1.9571
G02 X47.2614 Y123.2349 I-4.5384 J-0.2852
G02 X46.3411 Y121.6589 I-4.4064 J1.5165
G02 X44.8512 Y120.5307 I-3.5705 J3.1672
G02 X43.0000 Y120.0500 I-2.1298 J4.3968
G02 X41.0627 Y120.3229 I-0.2851 J4.9900
G02 X39.3407 Y121.3407 I1.6895 J4.8235
G02 X38.1150 Y122.9766 I3.4866 J3.8896
G02 X37.6000 Y125.0000 I4.8139 J2.3024
G02 X37.9071 Y127.1095 I5.4414 J0.2850
G02 X39.0225 Y128.9775 I5.2404 J-1.8623
G02 X40.8044 Y130.3008 I4.2086 J-3.8057
G02 X43.0000 Y130.8500 I2.4750 J-5.2308
G02 X45.2817 Y130.5086 I0.2848 J-5.8925
G02 X47.2957 Y129.2957 I-2.0350 J-5.6571
G02 X48.7165 Y127.3679 I-4.1247 J-4.5275
G02 X49.3000 Y125.0000 I-5.6475 J-2.6475
G02 X48.9244 Y122.5460 I-6.3435 J-0.2847
G02 X47.6139 Y120.3861 I-6.0737 J2.2076
G02 X45.5401 Y118.8677 I-4.8462 J4.4436
G02 X43.0000 Y118.2500 I-2.8200 J6.0641
G02 X40.3738 Y118.6599 I-0.2846 J6.7943
G02 X38.0679 Y120.0679 I2.3802 J6.4902
G02 X36.4520 Y122.2877 I4.7624 J5.1649
G02 X35.8000 Y125.0000 I6.4806 J2.9924
G02 X36.2441 Y127.7984 I7.2451 J0.2846
G02 X37.7497 Y130.2503 I6.9066 J-2.5528
G02 X40.1155 Y131.9637 I5.4836 J-5.0812
G02 X43.0000 Y132.6500 I3.1648 J-6.8970
G02 X45.9706 Y132.1716 I0.2845 J-7.6957
G02 X48.5685 Y130.5685 I-2.7253 J-7.3229
G02 X50.3795 Y128.0567 I-5.3999 J-5.8021
G02 X51.1000 Y125.0000 I-7.3133 J-3.3371
G02 X50.5874 Y121.8572 I-8.1463 J-0.2844
G02 X48.8867 Y119.1133 I-7.7391 J2.8978
G02 X46.2289 Y117.2048 I-6.1207 J5.7185
G02 X43.0000 Y116.4500 I-3.5095 J7.7296
G02 X39.6850 Y116.9969 I-0.2843 J8.5968
G02 X36.7951 Y118.7951 I3.0703 J8.1553
G02 X34.7890 Y121.5989 I6.0371 J6.4392
G02 X34.0000 Y125.0000 I8.1458 J3.6818
G02 X34.6851 Y128.4442 I9.0000 J0.0000
G02 X36.6360 Y131.3640 I8.3149 J-3.4442
G02 X39.5558 Y133.3149 I6.3640 J-6.3640
G02 X43.0000 Y134.0000 I3.4442 J-8.3149
G02 X46.4442 Y133.3149 I0.0000 J-9.0000
G02 X49.3640 Y131.3640 I-3.4442 J-8.3149
G02 X51.3149 Y128.4442 I-6.3640 J-6.3640
G02 X52.0000 Y125.0000 I-8.3149 J-3.4442
G02 X38.5000 Y117.2058 I-9.0000 J0.0000
G02 Y132.7942 I4.5000 J7.7942
G02 X52.0000 Y125.0000 I4.5000 J-7.7942
G00 X43.9000
G02 X42.5500 Y124.2206 Z-4.3333 I-0.9000 J0.0000 F200
G02 Y125.7794 Z-5.1667 I0.4500 J0.7794
G02 X43.9000 Y125.0000 Z-6.0000 I0.4500 J-0.7794
G02 X42.5500 Y124.2206 I-0.9000 J0.0000
G02 Y125.7794 I0.4500 J0.7794
G02 X43.9000 Y125.0000 I0.4500 J-0.7794
G02 X43.9354 Y124.6125 I-0.8803 J-0.2758 F400
G02 X43.7955 Y124.2045 I-1.0296 J0.1251
G02 X43.4736 Y123.8567 I-0.9881 J0.5917
G02 X43.0000 Y123.6500 I-0.7326 J1.0326
G02 X42.4403 Y123.6488 I-0.2827 J1.3510
G02 X41.8863 Y123.8863 I0.2996 J1.4640
G02 X41.4410 Y124.3542 I0.9185 J1.3201
G02 X41.2000 Y125.0000 I1.4602 J0.9127
G02 X41.2331 Y125.7319 I1.8134 J0.2847
G02 X41.5681 Y126.4319 I1.8905 J-0.4746
G02 X42.1820 Y126.9748 I1.6461 J-1.2429
G02 X43.0000 Y127.2500 I1.0891 J-1.8838
G02 X43.9041 Y127.1827 I0.2854 J-2.2714
G02 X44.7501 Y126.7501 I-0.6492 J-2.3132
G02 X45.3905 Y125.9902 I-1.5655 J-1.9693
G02 X45.7000 Y125.0000 I-2.3051 J-1.2638
G02 X45.5984 Y123.9237 I-2.7270 J-0.2856
G02 X45.0683 Y122.9317 I-2.7337 J0.8232
G02 X44.1624 Y122.1937 I-2.2908 J1.8870
G02 X43.0000 Y121.8500 I-1.4377 J2.7248
G02 X41.7515 Y121.9858 I-0.2855 J3.1810
G02 X40.6135 Y122.6135 I0.9969 J3.1529
G02 X39.7780 Y123.6654 I2.2077 J2.6114
G02 X39.4000 Y125.0000 I3.1436 J1.6111
G02 X39.5701 Y126.4207 I3.6341 J0.2854
G02 X40.2953 Y127.7047 I3.5712 J-1.1703
G02 X41.4932 Y128.6378 I2.9315 J-2.5279
G02 X43.0000 Y129.0500 I1.7842 J-3.5618
G02 X44.5929 Y128.8456 I0.2853 J-4.0865
G02 X46.0229 Y128.0229 I-1.3435 J-3.9890
G02 X47.0535 Y126.6790 I-2.8477 J-3.2511
G02 X47.5000 Y125.0000 I-3.9795 J-1.9571
G02 X47.2614 Y123.2349 I-4.5384 J-0.2852
G02 X46.3411 Y121.6589 I-4.4064 J1.5165
G02 X44.8512 Y120.5307 I-3.5705 J3.1672
G02 X43.0000 Y120.0500 I-2.1298 J4.3968
G02 X41.0627 Y120.3229 I-0.2851 J4.9900
G02 X39.3407 Y121.3407 I1.6895 J4.8235
G02 X38.1150 Y122.9766 I3.4866 J3.8896
G02 X37.6000 Y125.0000 I4.8139 J2.3024
G02 X37.9071 Y127.1095 I5.4414 J0.2850
G02 X39.0225 Y128.9775 I5.2404 J-1.8623
G02 X40.8044 Y130.3008 I4.2086 J-3.8057
G02 X43.0000 Y130.8500 I2.4750 J-5.2308
G02 X45.2817 Y130.5086 I0.2848 J-5.8925
G02 X47.2957 Y129.2957 I-2.0350 J-5.6571
G02 X48.7165 Y127.3679 I-4.1247 J-4.5275
G02 X49.3000 Y125.0000 I-5.6475 J-2.6475
G02 X48.9244 Y122.5460 I-6.3435 J-0.2847
G02 X47.6139 Y120.3861 I-6.0737 J2.2076
G02 X45.5401 Y118.8677 I-4.8462 J4.4436
G02 X43.0000 Y118.2500 I-2.8200 J6.0641
G02 X40.3738 Y118.6599 I-0.2846 J6.7943
G02 X38.0679 Y120.0679 I2.3802 J6.4902
G02 X36.4520 Y122.2877 I4.7624 J5.1649
G02 X35.8000 Y125.0000 I6.4806 J2.9924
G02 X36.2441 Y127.7984 I7.2451 J0.2846
G02 X37.7497 Y130.2503 I6.9066 J-2.5528
G02 X40.1155 Y131.9637 I5.4836 J-5.0812
G02 X43.0000 Y132.6500 I3.1648 J-6.8970
G02 X45.9706 Y132.1716 I0.2845 J-7.6957
G02 X48.5685 Y130.5685 I-2.7253 J-7.3229
G02 X50.3795 Y128.0567 I-5.3999 J-5.8021
G02 X51.1000 Y125.0000 I-7.3133 J-3.3371
G02 X50.5874 Y121.8572 I-8.1463 J-0.2844
G02 X48.8867 Y119.1133 I-7.7391 J2.8978
G02 X46.2289 Y117.2048 I-6.1207 J5.7185
G02 X43.0000 Y116.4500 I-3.5095 J7.7296
G02 X39.6850 Y116.9969 I-0.2843 J8.5968
G02 X36.7951 Y118.7951 I3.0703 J8.1553
G02 X34.7890 Y121.5989 I6.0371 J6.4392
G02 X34.0000 Y125.0000 I8.1458 J3.6818
G02 X34.6851 Y128.4442 I9.0000 J0.0000
G02 X36.6360 Y131.3640 I8.3149 J-3.4442
G02 X39.5558 Y133.3149 I6.3640 J-6.3640
G02 X43.0000 Y134.0000 I3.4442 J-8.3149
G02 X46.4442 Y133.3149 I0.0000 J-9.0000
G02 X49.3640 Y131.3640 I-3.4442 J-8.3149
G02 X51.3149 Y128.4442 I-6.3640 J-6.3640
G02 X52.0000 Y125.0000 I-8.3149 J-3.4442
G02 X38.5000 Y117.2058 I-9.0000 J0.0000
G02 Y132.7942 I4.5000 J7.7942
G02 X52.0000 Y125.0000 I4.5000 J-7.7942
G00 Z5.0000


(Nr. 8: Tasche raeumen: Ausschnitt 5)
G00 X233.8000 Y129.1000 Z5.0000
G00 Z0.5000
G01 Z-3.5000 F200
G01 X220.4644 F400
G02 X221.0694 Y128.5443 I-0.4298 J-1.0753
G01 X221.1563 Y128.3210
G01 X221.1970 Y128.0849
G01 X221.1973 Y127.3000
G01 X233.8000
G01 Y125.5000
G01 X221.1980
G01 X221.1987 Y123.7000
G01 X233.8000
G01 Y121.9000
G01 X221.1994
G00 Z5.0000
G00 X233.8000 Y129.1000
G00 Z-3.0000
G01 Z-4.0000 F200
G01 X220.4644 F400
G02 X221.0694 Y128.5443 I-0.4298 J-1.0753
G01 X221.1563 Y128.3210
G01 X221.1970 Y128.0849
G01 X221.1973 Y127.3000
G01 X233.8000
G01 Y125.5000
G01 X221.1980
G01 X221.1987 Y123.7000
G01 X233.8000
G01 Y121.9000
G01 X221.1994
G00 Z5.0000


(Nr. 9: Tasche Seitenwand: Ausschnitt 5)
G00 X182.0000 Y129.0000 Z5.0000
G00 Z0.5000
G01 Z-3.5000 F200
G01 Y131.0000 F400
G01 X234.0000
G01 Y120.0000
G01 X221.0000
G01 X220.9975 Y128.0707
G03 X220.1987 Y128.9801 I-0.9975 J-0.0707
G01 X220.0000 Y129.0000
G01 X182.0000
G01 Z-4.0000 F200
G01 Y131.0000 F400
G01 X234.0000
G01 Y120.0000
G01 X221.0000
G01 X220.9975 Y128.0707
G03 X220.1987 Y128.9801 I-0.9975 J-0.0707
G01 X220.0000 Y129.0000
G01 X182.0000
G00 Z5.0000


(Nr. 10: Ausschnitt 2)
G00 X196.1524 Y81.0000 Z5.0000
G00 Z0.5000
G01 Z-3.5000 F200
G01 X183.0000 F400
G01 Y117.0000
G01 X195.8756
G01 X198.8756
G01 X213.0000
G01 Y81.0000
G01 X199.1524
G01 X196.1524
G01 Z-6.0000 F200
G01 X183.0000 F400
G01 Y117.0000
G01 X195.8756
G00 Z-4.0000
G01 X198.8756
G01 Z-6.0000 F200
G01 X213.0000 F400
G01 Y81.0000
G01 X199.1524
G00 Z-4.0000
G01 X196.1524
G00 Z5.0000


(Nr. 11: Kreistasche 3)
G00 X227.9000 Y126.0000 Z5.0000
G00 Z0.5000
G02 X226.5500 Y125.2206 Z0.3333 I-0.9000 J0.0000 F200
G02 Y126.7794 Z0.1667 I0.4500 J0.7794
G02 X227.9000 Y126.0000 Z0.0000 I0.4500 J-0.7794
G02 X226.5500 Y125.2206 I-0.9000 J0.0000
G02 Y126.7794 I0.4500 J0.7794
G02 X227.9000 Y126.0000 I0.4500 J-0.7794
G02 X226.5500 Y125.2206 Z-1.1667 I-0.9000 J0.0000
G02 Y126.7794 Z-2.3333 I0.4500 J0.7794
G02 X227.9000 Y126.0000 Z-3.5000 I0.4500 J-0.7794
G02 X226.5500 Y125.2206 I-0.9000 J0.0000
G02 Y126.7794 I0.4500 J0.7794
G02 X227.9000 Y126.0000 I0.4500 J-0.7794
G02 X227.9354 Y125.6125 I-0.8803 J-0.2758 F400
G02 X227.7955 Y125.2045 I-1.0296 J0.1251
G02 X227.4736 Y124.8567 I-0.9881 J0.5917
G02 X227.0000 Y124.6500 I-0.7326 J1.0326
G02 X226.4403 Y124.6488 I-0.2827 J1.3510
G02 X225.8863 Y124.8863 I0.2996 J1.4640
G02 X225.4410 Y125.3542 I0.9185 J1.3201
G02 X225.2000 Y126.0000 I1.4602 J0.9127
G02 X225.2331 Y126.7319 I1.8134 J0.2847
G02 X225.5681 Y127.4319 I1.8905 J-0.4746
G02 X226.1820 Y127.9748 I1.6461 J-1.2429
G02 X227.0000 Y128.2500 I1.0891 J-1.8838
G02 X227.9041 Y128.1827 I0.2854 J-2.2714
G02 X228.7501 Y127.7501 I-0.6492 J-2.3132
G02 X229.3905 Y126.9902 I-1.5655 J-1.9693
G02 X229.7000 Y126.0000 I-2.3051 J-1.2638
G02 X229.5984 Y124.9237 I-2.7270 J-0.2856
G02 X229.0683 Y123.9317 I-2.7337 J0.8232
G02 X228.1481 Y123.2284 I-2.2207 J1.9517
G02 X227.0000 Y123.0000 I-1.1481 J2.7716
G02 X225.8519 Y123.2284 I0.0000 J3.0000
G02 X224.8787 Y123.8787 I1.1481 J2.7716
G02 X224.2284 Y124.8519 I2.1213 J2.1213
G02 X224.0000 Y126.0000 I2.7716 J1.1481
G02 X224.2284 Y127.1481 I3.0000 J0.0000
G02 X224.8787 Y128.1213 I2.7716 J-1.1481
G02 X225.8519 Y128.7716 I2.1213 J-2.1213
G02 X227.0000 Y129.0000 I1.1481 J-2.7716
G02 X228.1481 Y128.7716 I0.0000 J-3.0000
G02 X229.1213 Y128.1213 I-1.1481 J-2.7716
G02 X229.7716 Y127.1481 I-2.1213 J-2.1213
G02 X230.0000 Y126.0000 I-2.7716 J-1.1481
G02 X225.5000 Y123.4019 I-3.0000 J0.0000
G02 Y128.5981 I1.5000 J2.5981
G02 X230.0000 Y126.0000 I1.5000 J-2.5981
G00 X227.9000
G02 X226.5500 Y125.2206 Z-4.3333 I-0.9000 J0.0000 F200
G02 Y126.7794 Z-5.1667 I0.4500 J0.7794
G02 X227.9000 Y126.0000 Z-6.0000 I0.4500 J-0.7794
G02 X226.5500 Y125.2206 I-0.9000 J0.0000
G02 Y126.7794 I0.4500 J0.7794
G02 X227.9000 Y126.0000 I0.4500 J-0.7794
G02 X227.9354 Y125.6125 I-0.8803 J-0.2758 F400
G02 X227.7955 Y125.2045 I-1.0296 J0.1251
G02 X227.4736 Y124.8567 I-0.9881 J0.5917
G02 X227.0000 Y124.6500 I-0.7326 J1.0326
G02 X226.4403 Y124.6488 I-0.2827 J1.3510
G02 X225.8863 Y124.8863 I0.2996 J1.4640
G02 X225.4410 Y125.3542 I0.9185 J1.3201
G02 X225.2000 Y126.0000 I1.4602 J0.9127
G02 X225.2331 Y126.7319 I1.8134 J0.2847
G02 X225.5681 Y127.4319 I1.8905 J-0.4746
G02 X226.1820 Y127.9748 I1.6461 J-1.2429
G02 X227.0000 Y128.2500 I1.0891 J-1.8838
G02 X227.9041 Y128.1827 I0.2854 J-2.2714
G02 X228.7501 Y127.7501 I-0.6492 J-2.3132
G02 X229.3905 Y126.9902 I-1.5655 J-1.9693
G02 X229.7000 Y126.0000 I-2.3051 J-1.2638
G02 X229.5984 Y124.9237 I-2.7270 J-0.2856
G02 X229.0683 Y123.9317 I-2.7337 J0.8232
G02 X228.1481 Y123.2284 I-2.2207 J1.9517
G02 X227.0000 Y123.0000 I-1.1481 J2.7716
G02 X225.8519 Y123.2284 I0.0000 J3.0000
G02 X224.8787 Y123.8787 I1.1481 J2.7716
G02 X224.2284 Y124.8519 I2.1213 J2.1213
G02 X224.0000 Y126.0000 I2.7716 J1.1481
G02 X224.2284 Y127.1481 I3.0000 J0.0000
G02 X224.8787 Y128.1213 I2.7716 J-1.1481
G02 X225.8519 Y128.7716 I2.1213 J-2.1213
G02 X227.0000 Y129.0000 I1.1481 J-2.7716
G02 X228.1481 Y128.7716 I0.0000 J-3.0000
G02 X229.1213 Y128.1213 I-1.1481 J-2.7716
G02 X229.7716 Y127.1481 I-2.1213 J-2.1213
G02 X230.0000 Y126.0000 I-2.7716 J-1.1481
G02 X225.5000 Y123.4019 I-3.0000 J0.0000
G02 Y128.5981 I1.5000 J2.5981
G02 X230.0000 Y126.0000 I1.5000 J-2.5981
G00 Z5.0000


(Nr. 12: Kreistasche 2)
G00 X231.9000 Y99.0000 Z5.0000
G00 Z0.5000
G02 X230.5500 Y98.2206 Z0.3333 I-0.9000 J0.0000 F200
G02 Y99.7794 Z0.1667 I0.4500 J0.7794
G02 X231.9000 Y99.0000 Z0.0000 I0.4500 J-0.7794
G02 X230.5500 Y98.2206 I-0.9000 J0.0000
G02 Y99.7794 I0.4500 J0.7794
G02 X231.9000 Y99.0000 I0.4500 J-0.7794
G02 X230.5500 Y98.2206 Z-1.1667 I-0.9000 J0.0000
G02 Y99.7794 Z-2.3333 I0.4500 J0.7794
G02 X231.9000 Y99.0000 Z-3.5000 I0.4500 J-0.7794
G02 X230.5500 Y98.2206 I-0.9000 J0.0000
G02 Y99.7794 I0.4500 J0.7794
G02 X231.9000 Y99.0000 I0.4500 J-0.7794
G02 X231.9354 Y98.6125 I-0.8803 J-0.2758 F400
G02 X231.7955 Y98.2045 I-1.0296 J0.1251
G02 X231.4736 Y97.8567 I-0.9881 J0.5917
G02 X231.0000 Y97.6500 I-0.7326 J1.0326
G02 X230.4403 Y97.6488 I-0.2827 J1.3510
G02 X229.8863 Y97.8863 I0.2996 J1.4640
G02 X229.4410 Y98.3542 I0.9185 J1.3201
G02 X229.2000 Y99.0000 I1.4602 J0.9127
G02 X229.2331 Y99.7319 I1.8134 J0.2847
G02 X229.5681 Y100.4319 I1.8905 J-0.4746
G02 X230.1820 Y100.9748 I1.6461 J-1.2429
G02 X231.0000 Y101.2500 I1.0891 J-1.8838
G02 X231.9041 Y101.1827 I0.2854 J-2.2714
G02 X232.7501 Y100.7501 I-0.6492 J-2.3132
G02 X233.3097 Y99.9567 I-1.7132 J-1.8024
G02 X233.5000 Y99.0000 I-2.3097 J-0.9567
G02 X229.7500 Y96.8349 I-2.5000 J0.0000
G02 Y101.1651 I1.2500 J2.1651
G02 X233.5000 Y99.0000 I1.2500 J-2.1651
G00 X231.9000
G02 X230.5500 Y98.2206 Z-4.3333 I-0.9000 J0.0000 F200
G02 Y99.7794 Z-5.1667 I0.4500 J0.7794
G02 X231.9000 Y99.0000 Z-6.0000 I0.4500 J-0.7794
G02 X230.5500 Y98.2206 I-0.9000 J0.0000
G02 Y99.7794 I0.4500 J0.7794
G02 X231.9000 Y99.0000 I0.4500 J-0.7794
G02 X231.9354 Y98.6125 I-0.8803 J-0.2758 F400
G02 X231.7955 Y98.2045 I-1.0296 J0.1251
G02 X231.4736 Y97.8567 I-0.9881 J0.5917
G02 X231.0000 Y97.6500 I-0.7326 J1.0326
G02 X230.4403 Y97.6488 I-0.2827 J1.3510
G02 X229.8863 Y97.8863 I0.2996 J1.4640
G02 X229.4410 Y98.3542 I0.9185 J1.3201
G02 X229.2000 Y99.0000 I1.4602 J0.9127
G02 X229.2331 Y99.7319 I1.8134 J0.2847
G02 X229.5681 Y100.4319 I1.8905 J-0.4746
G02 X230.1820 Y100.9748 I1.6461 J-1.2429
G02 X231.0000 Y101.2500 I1.0891 J-1.8838
G02 X231.9041 Y101.1827 I0.2854 J-2.2714
G02 X232.7501 Y100.7501 I-0.6492 J-2.3132
G02 X233.3097 Y99.9567 I-1.7132 J-1.8024
G02 X233.5000 Y99.0000 I-2.3097 J-0.9567
G02 X229.7500 Y96.8349 I-2.5000 J0.0000
G02 Y101.1651 I1.2500 J2.1651
G02 X233.5000 Y99.0000 I1.2500 J-2.1651
G00 Z5.0000


(Nr. 13: Kreistasche 4)
G00 X223.2500 Y99.0000 Z5.0000
G00 Z0.5000
G02 X222.8750 Y98.7835 Z-0.6667 I-0.2500 J0.0000 F200
G02 Y99.2165 Z-1.8333 I0.1250 J0.2165
G02 X223.2500 Y99.0000 Z-3.0000 I0.1250 J-0.2165
G02 X222.8750 Y98.7835 Z-3.3333 I-0.2500 J0.0000
G02 Y99.2165 Z-3.6667 I0.1250 J0.2165
G02 X223.2500 Y99.0000 Z-4.0000 I0.1250 J-0.2165
G02 X222.8750 Y98.7835 I-0.2500 J0.0000
G02 Y99.2165 I0.1250 J0.2165
G02 X223.2500 Y99.0000 I0.1250 J-0.2165
G00 Z5.0000


(Nr. 14: Teil 6)
G00 X170.0031 Y98.1966 Z5.0000
G00 Z0.5000
G01 Z-3.5000 F200
G01 X170.0050 Y84.9002 F400
G01 X170.0789 Y84.6106
G03 X171.0200 Y84.0000 I0.9217 J0.3901
G01 X175.0000
G01 X175.2929 Y84.2929
G01 X175.0000 Y84.0000
G01 Y70.0000
G03 X175.6376 Y69.0680 I1.0000 J0.0000
G01 X175.8300 Y69.0146
G01 X176.0200 Y69.0000
G01 X240.0000
G03 X241.0000 Y70.0200 I-0.0002 J1.0004
G01 Y84.0000
G01 X240.7071 Y84.2929
G01 X241.0000 Y84.0000
G01 X245.0000
G01 X245.1987 Y84.0199
G03 X245.9975 Y84.9293 I-0.1987 J0.9801
G01 X245.9965 Y99.6119
G01 X245.9962 Y102.6119
G01 X245.9950 Y120.0998
G03 X245.1700 Y120.9854 I-0.9950 J-0.0998
G01 X244.9800 Y121.0000
G01 X241.0000
G01 X240.7071 Y120.7071
G01 X241.0000 Y121.0000
G01 Y136.0000
G03 X240.5403 Y136.8415 I-1.0000 J0.0000
G01 X240.3624 Y136.9320
G01 X240.0707 Y136.9975
G01 X231.0000 Y137.0000
G01 X230.7071 Y136.7071
G01 X231.0000 Y137.0000
G01 Y141.0000
G01 X230.9801 Y141.1987
G03 X230.1700 Y141.9854 I-0.9801 J-0.1987
G01 X229.9800 Y142.0000
G01 X185.9002 Y141.9950
G03 X185.0146 Y141.1700 I0.0998 J-0.9950
G01 X185.0000 Y140.9800
G01 Y137.0000
G01 X185.2929 Y136.7071
G01 X185.0000 Y137.0000
G01 X176.0000
G03 X175.0680 Y136.3624 I0.0000 J-1.0000
G01 X175.0146 Y136.1700
G01 X175.0000 Y135.9800
G01 Y121.0000
G01 X175.2929 Y120.7071
G01 X175.0000 Y121.0000
G01 X171.0000
G01 X170.8013 Y120.9801
G03 X170.0146 Y120.1700 I0.1987 J-0.9801
G01 X170.0000 Y119.9800
G01 X170.0027 Y101.1966
G01 X170.0031 Y98.1966
G01 Z-6.0000 F200
G01 X170.0050 Y84.9002 F400
G01 X170.0789 Y84.6106
G03 X171.0200 Y84.0000 I0.9217 J0.3901
G01 X175.0000
G01 X175.2929 Y84.2929
G01 X175.0000 Y84.0000
G01 Y70.0000
G03 X175.6376 Y69.0680 I1.0000 J0.0000
G01 X175.8300 Y69.0146
G01 X176.0200 Y69.0000
G01 X240.0000
G03 X241.0000 Y70.0200 I-0.0002 J1.0004
G01 Y84.0000
G01 X240.7071 Y84.2929
G01 X241.0000 Y84.0000
G01 X245.0000
G01 X245.1987 Y84.0199
G03 X245.9975 Y84.9293 I-0.1987 J0.9801
G01 X245.9965 Y99.6119
G00 Z-4.0000
G01 X245.9962 Y102.6119
G01 Z-6.0000 F200
G01 X245.9950 Y120.0998 F400
G03 X245.1700 Y120.9854 I-0.9950 J-0.0998
G01 X244.9800 Y121.0000
G01 X241.0000
G01 X240.7071 Y120.7071
G01 X241.0000 Y121.0000
G01 Y136.0000
G03 X240.5403 Y136.8415 I-1.0000 J0.0000
G01 X240.3624 Y136.9320
G01 X240.0707 Y136.9975
G01 X231.0000 Y137.0000
G01 X230.7071 Y136.7071
G01 X231.0000 Y137.0000
G01 Y141.0000
G01 X230.9801 Y141.1987
G03 X230.1700 Y141.9854 I-0.9801 J-0.1987
G01 X229.9800 Y142.0000
G01 X185.9002 Y141.9950
G03 X185.0146 Y141.1700 I0.0998 J-0.9950
G01 X185.0000 Y140.9800
G01 Y137.0000
G01 X185.2929 Y136.7071
G01 X185.0000 Y137.0000
G01 X176.0000
G03 X175.0680 Y136.3624 I0.0000 J-1.0000
G01 X175.0146 Y136.1700
G01 X175.0000 Y135.9800
G01 Y121.0000
G01 X175.2929 Y120.7071
G01 X175.0000 Y121.0000
G01 X171.0000
G01 X170.8013 Y120.9801
G03 X170.0146 Y120.1700 I0.1987 J-0.9801
G01 X170.0000 Y119.9800
G01 X170.0027 Y101.1966
G00 Z-4.0000
G01 X170.0031 Y98.1966
G00 Z5.0000


(Nr. 15: Teil 5)
G00 X182.4583 Y15.3841 Z5.0000
G00 Z0.5000
G01 Z-3.5000 F200
G01 X244.0000 F400
G01 X244.2955 Y15.4288
G01 X244.5646 Y15.5588
G03 X245.0000 Y16.4041 I-0.5655 J0.8260
G01 Y22.0000
G01 X244.9553 Y22.2955
G01 X244.8253 Y22.5646
G03 X244.0707 Y22.9975 I-0.8253 J-0.5646
G01 X240.0000 Y23.0000
G01 X239.7071 Y22.7071
G01 X240.0000 Y23.0000
G01 Y45.0000
G01 X239.7071 Y45.2929
G01 X240.0000 Y45.0000
G01 X244.0998 Y45.0050
G03 X244.9636 Y45.7325 I-0.0998 J0.9950
G01 X245.0000 Y46.0200
G01 Y61.0000
G03 X243.9800 Y62.0000 I-1.0004 J-0.0002
G01 X229.0000
G01 X228.7045 Y61.9553
G03 X228.0146 Y61.1700 I0.2955 J-0.9553
G01 X228.0000 Y60.9800
G01 Y57.0000
G01 X228.2929 Y56.7071
G01 X228.0000 Y57.0000
G01 X186.0000
G01 X185.7071 Y56.7071
G01 X186.0000 Y57.0000
G01 Y61.0000
G03 X185.8253 Y61.5646 I-1.0000 J0.0000
G03 X185.1700 Y61.9854 I-0.8253 J-0.5646
G01 X184.9800 Y62.0000
G01 X181.9089
G01 X178.9089
G01 X170.0000
G03 X169.0146 Y61.1700 I0.0000 J-1.0000
G01 X169.0000 Y60.9800
G01 Y46.0000
G01 X169.0447 Y45.7045
G03 X169.8300 Y45.0146 I0.9553 J0.2955
G01 X170.0200 Y45.0000
G01 X174.0000
G01 X174.2929 Y45.2929
G01 X174.0000 Y45.0000
G01 Y23.0000
G01 X174.2929 Y22.7071
G01 X174.0000 Y23.0000
G01 X169.9002 Y22.9950
G03 X169.2826 Y22.6967 I0.0998 J-0.9950
G03 X169.0000 Y21.9800 I0.7189 J-0.6976
G01 X169.0050 Y16.2843
G03 X169.8300 Y15.3987 I0.9950 J0.0998
G01 X170.0200 Y15.3841
G01 X179.4583
G01 X182.4583
G01 Z-6.0000 F200
G01 X244.0000 F400
G01 X244.2955 Y15.4288
G01 X244.5646 Y15.5588
G03 X245.0000 Y16.4041 I-0.5655 J0.8260
G01 Y22.0000
G01 X244.9553 Y22.2955
G01 X244.8253 Y22.5646
G03 X244.0707 Y22.9975 I-0.8253 J-0.5646
G01 X240.0000 Y23.0000
G01 X239.7071 Y22.7071
G01 X240.0000 Y23.0000
G01 Y45.0000
G01 X239.7071 Y45.2929
G01 X240.0000 Y45.0000
G01 X244.0998 Y45.0050
G03 X244.9636 Y45.7325 I-0.0998 J0.9950
G01 X245.0000 Y46.0200
G01 Y61.0000
G03 X243.9800 Y62.0000 I-1.0004 J-0.0002
G01 X229.0000
G01 X228.7045 Y61.9553
G03 X228.0146 Y61.1700 I0.2955 J-0.9553
G01 X228.0000 Y60.9800
G01 Y57.0000
G01 X228.2929 Y56.7071
G01 X228.0000 Y57.0000
G01 X186.0000
G01 X185.7071 Y56.7071
G01 X186.0000 Y57.0000
G01 Y61.0000
G03 X185.8253 Y61.5646 I-1.0000 J0.0000
G03 X185.1700 Y61.9854 I-0.8253 J-0.5646
G01 X184.9800 Y62.0000
G01 X181.9089
G00 Z-4.0000
G01 X178.9089
G01 Z-6.0000 F200
G01 X170.0000 F400
G03 X169.0146 Y61.1700 I0.0000 J-1.0000
G01 X169.0000 Y60.9800
G01 Y46.0000
G01 X169.0447 Y45.7045
G03 X169.8300 Y45.0146 I0.9553 J0.2955
G01 X170.0200 Y45.0000
G01 X174.0000
G01 X174.2929 Y45.2929
G01 X174.0000 Y45.0000
G01 Y23.0000
G01 X174.2929 Y22.7071
G01 X174.0000 Y23.0000
G01 X169.9002 Y22.9950
G03 X169.2826 Y22.6967 I0.0998 J-0.9950
G03 X169.0000 Y21.9800 I0.7189 J-0.6976
G01 X169.0050 Y16.2843
G03 X169.8300 Y15.3987 I0.9950 J0.0998
G01 X170.0200 Y15.3841
G01 X179.4583
G00 Z-4.0000
G01 X182.4583
G00 Z5.0000


(Nr. 16: Teil 3)
G00 X161.0000 Y36.4947 Z5.0000
G00 Z0.5000
G01 Z-3.5000 F200
G01 Y46.0000 F400
G01 X160.9553 Y46.2955
G01 X160.8776 Y46.4794
G03 X159.9800 Y47.0000 I-0.8782 J-0.4802
G01 X156.0000
G01 X155.7071 Y46.7071
G01 X156.0000 Y47.0000
G01 X155.9950 Y61.0998
G03 X154.9800 Y62.0000 I-0.9954 J-0.1001
G01 X140.0000
G01 X139.7045 Y61.9553
G03 X139.0146 Y61.1700 I0.2955 J-0.9553
G01 X139.0000 Y60.9800
G01 Y57.0000
G01 X139.2929 Y56.7071
G01 X139.0000 Y57.0000
G01 X90.0000
G01 X89.8013 Y56.9801
G01 X89.6106 Y56.9211
G03 X89.0025 Y56.0707 I0.3894 J-0.9211
G01 X89.0000 Y47.0000
G01 X89.2929 Y46.7071
G01 X89.0000 Y47.0000
G01 X85.0000
G03 X84.1088 Y46.4536 I0.0000 J-1.0000
G01 X84.0146 Y46.1700
G01 X84.0000 Y45.9800
G01 Y37.2074
G01 Y34.2074
G01 Y20.0000
G01 X84.0199 Y19.8013
G03 X84.8300 Y19.0146 I0.9801 J0.1987
G01 X85.0200 Y19.0000
G01 X89.0000
G01 X89.2929 Y19.2929
G01 X89.0000 Y19.0000
G01 X89.0050 Y4.8230
G03 X90.0292 Y3.9233 I0.9950 J0.0998
G01 X90.1933 Y3.9415
G01 X106.0419 Y6.7361
G01 X106.3252 Y6.8314
G03 X106.8682 Y7.7246 I-0.4569 J0.8895
G01 X106.8496 Y7.9142
G01 X106.1585 Y11.8337
G01 X105.8192 Y12.0713
G01 X106.1585 Y11.8337
G01 X138.6571 Y17.5641
G01 X138.8947 Y17.9034
G01 X138.6571 Y17.5641
G01 X139.3740 Y13.5275
G03 X140.2404 Y12.8032 I0.9626 J0.2711
G01 X140.5299 Y12.8172
G01 X155.1736 Y15.3993
G01 X155.3658 Y15.4534
G03 X155.9954 Y16.2880 I-0.3658 J0.9307
G01 X156.0000 Y21.3441
G01 X155.7075 Y21.6362
G01 X156.0000 Y21.3441
G01 X160.0000 Y21.3429
G01 X160.1987 Y21.3628
G03 X160.9854 Y22.1729 I-0.1987 J0.9801
G01 X161.0000 Y22.3629
G01 Y33.4947
G01 Y36.4947
G01 Z-6.0000 F200
G01 Y46.0000 F400
G01 X160.9553 Y46.2955
G01 X160.8776 Y46.4794
G03 X159.9800 Y47.0000 I-0.8782 J-0.4802
G01 X156.0000
G01 X155.7071 Y46.7071
G01 X156.0000 Y47.0000
G01 X155.9950 Y61.0998
G03 X154.9800 Y62.0000 I-0.9954 J-0.1001
G01 X140.0000
G01 X139.7045 Y61.9553
G03 X139.0146 Y61.1700 I0.2955 J-0.9553
G01 X139.0000 Y60.9800
G01 Y57.0000
G01 X139.2929 Y56.7071
G01 X139.0000 Y57.0000
G01 X90.0000
G01 X89.8013 Y56.9801
G01 X89.6106 Y56.9211
G03 X89.0025 Y56.0707 I0.3894 J-0.9211
G01 X89.0000 Y47.0000
G01 X89.2929 Y46.7071
G01 X89.0000 Y47.0000
G01 X85.0000
G03 X84.1088 Y46.4536 I0.0000 J-1.0000
G01 X84.0146 Y46.1700
G01 X84.0000 Y45.9800
G01 Y37.2074
G00 Z-4.0000
G01 Y34.2074
G01 Z-6.0000 F200
G01 Y20.0000 F400
G01 X84.0199 Y19.8013
G03 X84.8300 Y19.0146 I0.9801 J0.1987
G01 X85.0200 Y19.0000
G01 X89.0000
G01 X89.2929 Y19.2929
G01 X89.0000 Y19.0000
G01 X89.0050 Y4.8230
G03 X90.0292 Y3.9233 I0.9950 J0.0998
G01 X90.1933 Y3.9415
G01 X106.0419 Y6.7361
G01 X106.3252 Y6.8314
G03 X106.8682 Y7.7246 I-0.4569 J0.8895
G01 X106.8496 Y7.9142
G01 X106.1585 Y11.8337
G01 X105.8192 Y12.0713
G01 X106.1585 Y11.8337
G01 X138.6571 Y17.5641
G01 X138.8947 Y17.9034
G01 X138.6571 Y17.5641
G01 X139.3740 Y13.5275
G03 X140.2404 Y12.8032 I0.9626 J0.2711
G01 X140.5299 Y12.8172
G01 X155.1736 Y15.3993
G01 X155.3658 Y15.4534
G03 X155.9954 Y16.2880 I-0.3658 J0.9307
G01 X156.0000 Y21.3441
G01 X155.7075 Y21.6362
G01 X156.0000 Y21.3441
G01 X160.0000 Y21.3429
G01 X160.1987 Y21.3628
G03 X160.9854 Y22.1729 I-0.1987 J0.9801
G01 X161.0000 Y22.3629
G01 Y33.4947
G00 Z-4.0000
G01 Y36.4947
G00 Z5.0000


(Nr. 17: Teil 2)
G00 X162.0000 Y101.4155 Z5.0000
G00 Z0.5000
G01 Z-3.5000 F200
G01 Y112.6571 F400
G01 X161.9553 Y112.9526
G03 X161.1700 Y113.6426 I-0.9553 J-0.2955
G01 X160.9800 Y113.6571
G01 X157.0000
G01 X156.7071 Y113.3642
G01 X157.0000 Y113.6571
G01 X156.9950 Y118.7157
G03 X156.2675 Y119.5794 I-0.9950 J-0.0998
G01 X141.5102 Y122.1863
G01 X141.2114 Y122.1936
G03 X140.3955 Y121.5400 I0.1251 J-0.9921
G01 X140.3482 Y121.3554
G01 X139.6571 Y117.4359
G01 X139.8947 Y117.0966
G01 X139.6571 Y117.4359
G01 X107.1585 Y123.1663
G01 X106.8192 Y122.9287
G01 X107.1585 Y123.1663
G01 X107.8655 Y127.2047
G03 X107.2990 Y128.1816 I-0.9972 J0.0745
G01 X107.0222 Y128.2674
G01 X91.0745 Y131.0744
G03 X90.0010 Y130.1224 I-0.0745 J-0.9972
G01 X90.0000 Y115.9971
G01 X90.2919 Y115.7061
G01 X90.0000 Y115.9971
G01 X86.0000 Y116.0000
G01 X85.8013 Y115.9801
G03 X85.0146 Y115.1700 I0.1987 J-0.9801
G01 X85.0000 Y114.9800
G01 Y101.7677
G01 Y98.7677
G01 Y89.0000
G01 X85.0199 Y88.8013
G01 X85.0789 Y88.6106
G03 X86.0200 Y88.0000 I0.9217 J0.3901
G01 X90.0000
G01 X90.2929 Y88.2929
G01 X90.0000 Y88.0000
G01 X90.0050 Y73.9002
G03 X91.0200 Y73.0000 I0.9954 J0.1001
G01 X106.0000
G01 X106.2955 Y73.0447
G03 X106.9854 Y73.8300 I-0.2955 J0.9553
G01 X107.0000 Y74.0200
G01 Y78.0000
G01 X106.7071 Y78.2929
G01 X107.0000 Y78.0000
G01 X140.0000
G01 X140.2929 Y78.2929
G01 X140.0000 Y78.0000
G01 X140.0050 Y73.9002
G03 X140.7325 Y73.0364 I0.9950 J0.0998
G01 X141.0200 Y73.0000
G01 X156.0000
G01 X156.2955 Y73.0447
G03 X156.9975 Y73.9293 I-0.2955 J0.9553
G01 X157.0000 Y88.0000
G01 X156.7071 Y88.2929
G01 X157.0000 Y88.0000
G01 X161.0000
G03 X161.8912 Y88.5464 I0.0000 J1.0000
G01 X161.9854 Y88.8300
G01 X162.0000 Y89.0200
G01 Y98.4155
G01 Y101.4155
G01 Z-6.0000 F200
G01 Y112.6571 F400
G01 X161.9553 Y112.9526
G03 X161.1700 Y113.6426 I-0.9553 J-0.2955
G01 X160.9800 Y113.6571
G01 X157.0000
G01 X156.7071 Y113.3642
G01 X157.0000 Y113.6571
G01 X156.9950 Y118.7157
G03 X156.2675 Y119.5794 I-0.9950 J-0.0998
G01 X141.5102 Y122.1863
G01 X141.2114 Y122.1936
G03 X140.3955 Y121.5400 I0.1251 J-0.9921
G01 X140.3482 Y121.3554
G01 X139.6571 Y117.4359
G01 X139.8947 Y117.0966
G01 X139.6571 Y117.4359
G01 X107.1585 Y123.1663
G01 X106.8192 Y122.9287
G01 X107.1585 Y123.1663
G01 X107.8655 Y127.2047
G03 X107.2990 Y128.1816 I-0.9972 J0.0745
G01 X107.0222 Y128.2674
G01 X91.0745 Y131.0744
G03 X90.0010 Y130.1224 I-0.0745 J-0.9972
G01 X90.0000 Y115.9971
G01 X90.2919 Y115.7061
G01 X90.0000 Y115.9971
G01 X86.0000 Y116.0000
G01 X85.8013 Y115.9801
G03 X85.0146 Y115.1700 I0.1987 J-0.9801
G01 X85.0000 Y114.9800
G01 Y101.7677
G00 Z-4.0000
G01 Y98.7677
G01 Z-6.0000 F200
G01 Y89.0000 F400
G01 X85.0199 Y88.8013
G01 X85.0789 Y88.6106
G03 X86.0200 Y88.0000 I0.9217 J0.3901
G01 X90.0000
G01 X90.2929 Y88.2929
G01 X90.0000 Y88.0000
G01 X90.0050 Y73.9002
G03 X91.0200 Y73.0000 I0.9954 J0.1001
G01 X106.0000
G01 X106.2955 Y73.0447
G03 X106.9854 Y73.8300 I-0.2955 J0.9553
G01 X107.0000 Y74.0200
G01 Y78.0000
G01 X106.7071 Y78.2929
G01 X107.0000 Y78.0000
G01 X140.0000
G01 X140.2929 Y78.2929
G01 X140.0000 Y78.0000
G01 X140.0050 Y73.9002
G03 X140.7325 Y73.0364 I0.9950 J0.0998
G01 X141.0200 Y73.0000
G01 X156.0000
G01 X156.2955 Y73.0447
G03 X156.9975 Y73.9293 I-0.2955 J0.9553
G01 X157.0000 Y88.0000
G01 X156.7071 Y88.2929
G01 X157.0000 Y88.0000
G01 X161.0000
G03 X161.8912 Y88.5464 I0.0000 J1.0000
G01 X161.9854 Y88.8300
G01 X162.0000 Y89.0200
G01 Y98.4155
G00 Z-4.0000
G01 Y101.4155
G00 Z5.0000


(Nr. 18: Teil 1)
G00 X81.0000 Y100.9739 Z5.0000
G00 Z0.5000
G01 Z-3.5000 F200
G01 Y125.0000 F400
G01 X80.9801 Y125.1987
G03 X80.0707 Y125.9975 I-0.9801 J-0.1987
G01 X76.0000 Y126.0000
G01 X75.7071 Y125.7071
G01 X76.0000 Y126.0000
G01 Y140.0000
G01 X75.9553 Y140.2955
G03 X75.0707 Y140.9975 I-0.9553 J-0.2955
G01 X66.0000 Y141.0000
G01 X65.7071 Y140.7071
G01 X66.0000 Y141.0000
G01 X65.9950 Y145.0998
G03 X64.9800 Y146.0000 I-0.9954 J-0.1001
G01 X20.9002 Y145.9950
G03 X20.0146 Y145.1700 I0.0998 J-0.9950
G01 X20.0000 Y144.9800
G01 Y141.0000
G01 X20.2929 Y140.7071
G01 X20.0000 Y141.0000
G01 X11.0000
G03 X10.4354 Y140.8253 I0.0000 J-1.0000
G03 X10.0000 Y139.9800 I0.5655 J-0.8260
G01 Y126.0000
G01 X10.2929 Y125.7071
G01 X10.0000 Y126.0000
G01 X5.9002 Y125.9950
G03 X5.0364 Y125.2675 I0.0998 J-0.9950
G01 X5.0000 Y124.9800
G01 Y101.2051
G00 Z0.0000
G01 Y98.2051
G01 Z-3.5000 F200
G01 Y90.0000 F400
G01 X5.0199 Y89.8013
G01 X5.0789 Y89.6106
G03 X6.0200 Y89.0000 I0.9217 J0.3901
G01 X10.0000
G01 X10.2929 Y89.2929
G01 X10.0000 Y89.0000
G01 Y75.0000
G01 X10.0199 Y74.8013
G01 X10.0789 Y74.6106
G03 X10.9293 Y74.0025 I0.9211 J0.3894
G01 X20.0000 Y74.0000
G01 X20.2929 Y74.2929
G01 X20.0000 Y74.0000
G01 Y70.0000
G01 X20.0199 Y69.8013
G03 X21.0200 Y69.0000 I0.9807 J0.1992
G01 X66.0998 Y69.0050
G03 X66.9854 Y69.8300 I-0.0998 J0.9950
G01 X67.0000 Y70.0200
G01 Y74.0000
G01 X66.7071 Y74.2929
G01 X67.0000 Y74.0000
G01 X80.0000
G01 X80.1987 Y74.0199
G01 X80.3894 Y74.0789
G03 X81.0000 Y75.0200 I-0.3901 J0.9217
G01 Y97.9739
G00 Z0.0000
G01 Y100.9739
G00 Z-3.0000
G01 Z-6.0000 F200
G01 Y125.0000 F400
G01 X80.9801 Y125.1987
G03 X80.0707 Y125.9975 I-0.9801 J-0.1987
G01 X76.0000 Y126.0000
G01 X75.7071 Y125.7071
G01 X76.0000 Y126.0000
G01 Y140.0000
G01 X75.9553 Y140.2955
G03 X75.0707 Y140.9975 I-0.9553 J-0.2955
G01 X66.0000 Y141.0000
G01 X65.7071 Y140.7071
G01 X66.0000 Y141.0000
G01 X65.9950 Y145.0998
G03 X64.9800 Y146.0000 I-0.9954 J-0.1001
G01 X20.9002 Y145.9950
G03 X20.0146 Y145.1700 I0.0998 J-0.9950
G01 X20.0000 Y144.9800
G01 Y141.0000
G01 X20.2929 Y140.7071
G01 X20.0000 Y141.0000
G01 X11.0000
G03 X10.4354 Y140.8253 I0.0000 J-1.0000
G03 X10.0000 Y139.9800 I0.5655 J-0.8260
G01 Y126.0000
G01 X10.2929 Y125.7071
G01 X10.0000 Y126.0000
G01 X5.9002 Y125.9950
G03 X5.0364 Y125.2675 I0.0998 J-0.9950
G01 X5.0000 Y124.9800
G01 Y101.2051
G00 Z0.0000
G01 Y98.2051
G00 Z-3.0000
G01 Z-6.0000 F200
G01 Y90.0000 F400
G01 X5.0199 Y89.8013
G01 X5.0789 Y89.6106
G03 X6.0200 Y89.0000 I0.9217 J0.3901
G01 X10.0000
G01 X10.2929 Y89.2929
G01 X10.0000 Y89.0000
G01 Y75.0000
G01 X10.0199 Y74.8013
G01 X10.0789 Y74.6106
G03 X10.9293 Y74.0025 I0.9211 J0.3894
G01 X20.0000 Y74.0000
G01 X20.2929 Y74.2929
G01 X20.0000 Y74.0000
G01 Y70.0000
G01 X20.0199 Y69.8013
G03 X21.0200 Y69.0000 I0.9807 J0.1992
G01 X66.0998 Y69.0050
G03 X66.9854 Y69.8300 I-0.0998 J0.9950
G01 X67.0000 Y70.0200
G01 Y74.0000
G01 X66.7071 Y74.2929
G01 X67.0000 Y74.0000
G01 X80.0000
G01 X80.1987 Y74.0199
G01 X80.3894 Y74.0789
G03 X81.0000 Y75.0200 I-0.3901 J0.9217
G01 Y97.9739
G00 Z0.0000
G01 Y100.9739
G00 Z5.0000


(Nr. 19: Teil 4)
G00 X16.2495 Y4.0000 Z5.0000
G00 Z0.5000
G01 Z-3.5000 F200
G01 X20.0000 F400
G03 X20.7174 Y4.3033 I0.0000 J1.0000
G03 X21.0000 Y5.0200 I-0.7198 J0.6979
G01 Y9.0000
G01 X20.7071 Y9.2929
G01 X21.0000 Y9.0000
G01 X64.0000
G01 X64.2929 Y9.2929
G01 X64.0000 Y9.0000
G01 X64.0050 Y4.9002
G03 X64.7325 Y4.0364 I0.9950 J0.0998
G01 X65.0200 Y4.0000
G01 X79.0000
G03 X80.0000 Y5.0200 I-0.0002 J1.0004
G01 Y20.0000
G01 X79.9553 Y20.2955
G03 X79.1700 Y20.9854 I-0.9553 J-0.2955
G01 X78.9800 Y21.0000
G01 X75.0000
G01 X74.7071 Y20.7071
G01 X75.0000 Y21.0000
G01 Y45.0000
G01 X74.7071 Y45.2929
G01 X75.0000 Y45.0000
G01 X79.0998 Y45.0050
G03 X79.9636 Y45.7325 I-0.0998 J0.9950
G01 X80.0000 Y46.0200
G01 Y61.0000
G03 X79.6216 Y61.7833 I-1.0000 J0.0000
G01 X79.3624 Y61.9320
G01 X79.0707 Y61.9975
G01 X65.0000 Y62.0000
G01 X64.7045 Y61.9553
G03 X64.0146 Y61.1700 I0.2955 J-0.9553
G01 X64.0000 Y60.9800
G01 Y57.0000
G01 X64.2929 Y56.7071
G01 X64.0000 Y57.0000
G01 X21.0000
G01 X20.7071 Y56.7071
G01 X21.0000 Y57.0000
G01 X20.9950 Y61.0998
G01 X20.9211 Y61.3894
G01 X20.7648 Y61.6442
G03 X19.9800 Y62.0000 I-0.7657 J-0.6456
G01 X16.9399
G01 X13.9399
G01 X5.0000
G03 X4.0000 Y60.9800 I0.0002 J-1.0004
G01 Y46.0000
G01 X4.0447 Y45.7045
G03 X4.8300 Y45.0146 I0.9553 J0.2955
G01 X5.0200 Y45.0000
G01 X9.0000
G01 X9.2929 Y45.2929
G01 X9.0000 Y45.0000
G01 Y21.0000
G01 X9.2929 Y20.7071
G01 X9.0000 Y21.0000
G01 X5.0000
G03 X4.0680 Y20.3624 I0.0000 J-1.0000
G01 X4.0025 Y20.0707
G01 X4.0050 Y4.9002
G03 X4.8300 Y4.0146 I0.9950 J0.0998
G01 X5.0200 Y4.0000
G01 X13.2495
G01 X16.2495
G01 Z-6.0000 F200
G01 X20.0000 F400
G03 X20.7174 Y4.3033 I0.0000 J1.0000
G03 X21.0000 Y5.0200 I-0.7198 J0.6979
G01 Y9.0000
G01 X20.7071 Y9.2929
G01 X21.0000 Y9.0000
G01 X64.0000
G01 X64.2929 Y9.2929
G01 X64.0000 Y9.0000
G01 X64.0050 Y4.9002
G03 X64.7325 Y4.0364 I0.9950 J0.0998
G01 X65.0200 Y4.0000
G01 X79.0000
G03 X80.0000 Y5.0200 I-0.0002 J1.0004
G01 Y20.0000
G01 X79.9553 Y20.2955
G03 X79.1700 Y20.9854 I-0.9553 J-0.2955
G01 X78.9800 Y21.0000
G01 X75.0000
G01 X74.7071 Y20.7071
G01 X75.0000 Y21.0000
G01 Y45.0000
G01 X74.7071 Y45.2929
G01 X75.0000 Y45.0000
G01 X79.0998 Y45.0050
G03 X79.9636 Y45.7325 I-0.0998 J0.9950
G01 X80.0000 Y46.0200
G01 Y61.0000
G03 X79.6216 Y61.7833 I-1.0000 J0.0000
G01 X79.3624 Y61.9320
G01 X79.0707 Y61.9975
G01 X65.0000 Y62.0000
G01 X64.7045 Y61.9553
G03 X64.0146 Y61.1700 I0.2955 J-0.9553
G01 X64.0000 Y60.9800
G01 Y57.0000
G01 X64.2929 Y56.7071
G01 X64.0000 Y57.0000
G01 X21.0000
G01 X20.7071 Y56.7071
G01 X21.0000 Y57.0000
G01 X20.9950 Y61.0998
G01 X20.9211 Y61.3894
G01 X20.7648 Y61.6442
G03 X19.9800 Y62.0000 I-0.7657 J-0.6456
G01 X16.9399
G00 Z-4.0000
G01 X13.9399
G01 Z-6.0000 F200
G01 X5.0000 F400
G03 X4.0000 Y60.9800 I0.0002 J-1.0004
G01 Y46.0000
G01 X4.0447 Y45.7045
G03 X4.8300 Y45.0146 I0.9553 J0.2955
G01 X5.0200 Y45.0000
G01 X9.0000
G01 X9.2929 Y45.2929
G01 X9.0000 Y45.0000
G01 Y21.0000
G01 X9.2929 Y20.7071
G01 X9.0000 Y21.0000
G01 X5.0000
G03 X4.0680 Y20.3624 I0.0000 J-1.0000
G01 X4.0025 Y20.0707
G01 X4.0050 Y4.9002
G03 X4.8300 Y4.0146 I0.9950 J0.0998
G01 X5.0200 Y4.0000
G01 X13.2495
G00 Z-4.0000
G01 X16.2495
G00 Z5.0000
G00 X0.0000 Y0.0000

M05
M30
